X: 15946
T: Granny In The Corner
R: reel
M: 4/4
K: Dmixolydian
GE|DEGA BGG2|AGBG AGEG|c3c cBAG|E3E E2GE|
DEGA BGG2|AGBG AGEG|c3c cBAG|D2 (3DDD D2GE|
DEGA BGG2|AGBG AGEG|c3c cBAG|E2cE dEcE|
DEGA BGG2|AGBG AGEG|c3c cBAG|D2 (3DDD D2||
|:Bc|d2dB cBAc|BAGB AGEG|c3c cBAG|E3E E2Bc|
dBB2 cAAc|BAGB AGEG|c3c cBAG|D2 (3DDD D2:|

